**kern	**text
*clefF4	*
*k[f#c#g#]	*
*M4/4	*
*MM172	*
=1	=1
2r	.
2E	- お
=2	=2
2A	o も
2e	o いD4
=3	=3
[2e	i だD4
8.eL]	.
*clefG2	*
16eJk	a しD4
8dL	i てD4
8c#J	e いD4
=4	=4
2.d	i たD4
4A	a のD4
=5	=5
3d	o わD4
6d	a RD4
4r	.
8dL	- まD4
8eJ	a たD4
=6	=6
4d	a かD4
4c#	a ぞD4
4A	o く
*clefF4	*
4E	u の
=7	=7
4F#	o こ
2.A	o と
=8	=8
4A'	o R
4A	- あ
4A	a や
4B	a の
*clefG2	*
=9	=9
4.c#	o わD4
8c#	a RD4
4c#	- お
[4a	o ねD4
=10	=10
4a]	.
12f#	e ちゃG4
[6e	a んD4
4e]	.
4c#	n だD4
=11	=11
4e	a かD4
4f#	a らG4
4f#'	a RG4
*clefF4	*
[4A	- み
=12	=12
12A]	.
6A	i ん
4A	n な
4F#	a の
4A	o こ
=13	=13
2e	o とD4
4e'	o RD4
4F#	- よ
=14	=14
4F#	o ろ
4A	o し
4A	i く
[4A	u ね
=15	=15
1A]	.
=16	=16
4A	e R
4r	.
2r	.
=17	=17
1r	.
=18	=18
1r	.
=19	=19
1r	.
=20	=20
1r	.
=21	=21
1r	.
=22	=22
1r	.
=23	=23
1r	.
=24	=24
1r	.
=25	=25
1r	.
=26	=26
1r	.
=27	=27
1r	.
=28	=28
1r	.
=29	=29
1r	.
=30	=30
1r	.
=31	=31
4r	.
8F#L	- あ
8F#J	a か
8AL	a れ
8A	e ん
8B	n が
*clefG2	*
[8c#J	a のD4
=32	=32
8c#L]	.
8eJ	o かD4
4e	a べD4
4e'	e RD4
4A	- ち
=33	=33
[8f#L	i さG4
32f#KL]	.
16.f#JJ	a あG4
4e	a なD4
8dL	a いD4
8dJ	i えD4
[4e	e のD4
=34	=34
4e]	.
4c#	o なD4
*clefF4	*
4B	a か
4A	a で
=35	=35
4A'	e R
8F#L	- ひ
8F#J	i そ
4A	o ひ
8BL	i そ
*clefG2	*
[8c#J	o はD4
=36	=36
8c#L]	.
8eJ	a なD4
4e	a そD4
4e'	o RD4
*clefF4	*
8EL	- ひ
8EJ	i み
=37	=37
4F#	i つ
4A	u の
8BL	o さ
8BJ	a く
*clefG2	*
[4c#	u せD4
=38	=38
8c#L]	.
8c#J	e んD4
4c#	n みD4
8.BL	i た
*clefF4	*
16BJk	a い
4A	i に
=39	=39
4A	i R
8F#L	- つ
8F#J	u れ
4A	e て
8BL	e こ
*clefG2	*
[8c#J	o らD4
=40	=40
8c#L]	.
8eJ	a れD4
4e	e たD4
4e'	a RD4
8AL	- さ
8AJ	a ん
=41	=41
8f#L	n にG4
8f#J	i んG4
4e	n のD4
4d'	o まD4
[4e	- かD4
=42	=42
4e]	.
4c#	a なD4
*clefF4	*
8BL	a め
8AJ	e に
4A	i わ
=43	=43
4A	a R
8F#L	- お
8F#J	o と
4A	o な
8BL	a に
*clefG2	*
[8c#J	i かD4
=44	=44
4c#]	.
4e	a くD4
8c#L	u しD4
8BJ	i て
4A	i た
=45	=45
4d	a かD4
4c#	a こD4
*clefF4	*
4A	o が
8BL	a あ
[8AJ	a る
=46	=46
4A]	.
4A'	u R
2r	.
=47	=47
4r	.
8F#L	- お
8F#J	o び
4A	i え
8BL	e た
*clefG2	*
[8c#J	a かD4
=48	=48
8c#L]	.
8eJ	a おD4
4e	o でD4
4e'	e RD4
8BL	- ぼ
8AJ	o く
=49	=49
4f#	u わG4
4e	a ばD4
8dL	a けD4
8f#J	e もG4
[4e	o のD4
=50	=50
4e]	.
4c#	o だD4
*clefF4	*
8B	a か
4.A	a ら
=51	=51
4A'	a R
8F#L	- わ
8F#J	a た
4A	a し
8BL	i わ
*clefG2	*
[8c#J	a つD4
=52	=52
8c#L]	.
8eJ	u げD4
4e	e るD4
4e'	u RD4
*clefF4	*
8EL	- そ
8EJ	o ん
=53	=53
4F#	n な
4A	a こ
4B	o と
*clefG2	*
[4c#	o わD4
=54	=54
4c#]	.
8c#L	a なD4
8c#J	a いD4
4B'	i よ
*clefF4	*
4A	- て
=55	=55
4A	e R
4F#'	- ま
4A	- か
8BL	a な
*clefG2	*
[8c#J	a いD4
=56	=56
8c#L]	.
8eJ	i ろD4
4e	o わD4
4e'	a RD4
4A	- しゅ
=57	=57
8f#L	u じG4
8f#J	i んG4
4e	n こD4
8dL	o のD4
8dJ	o いD4
[4e	i ろD4
=58	=58
4e]	.
4c#	o だD4
*clefF4	*
8B	a か
4A	a ら
[8A	a R
=59	=59
4A]	.
8F#L	- お
8F#J	o び
4A	i え
8BL	e て
*clefG2	*
[8c#J	e いD4
=60	=60
4c#]	.
4e	i なD4
8c#L	a くD4
8BJ	u て
4A	e も
=61	=61
4d	o いD4
4c#	i いD4
*clefF4	*
4A	i ん
8F#L	n だ
[8AJ	a よ
=62	=62
8AL]	.
8AJ	o R
4A	- お
4B	o も
*clefG2	*
4c#	o しD4
=63	=63
2e	i ろD4
4e'	o いD4
4A	- こ
=64	=64
2B	o と
*clefF4	*
4B'	o R
4A	- な
=65	=65
2e	a やD4
4e'	a んD4
4A	- で
=66	=66
4B	e わ
4c#	a きょD4
4B	o お
4A	o も
*clefG2	*
=67	=67
2c#	o おD4
2e	o ねD4
=68	=68
2f#	e えG4
2a	e ちゃG4
=69	=69
4b	a んG4
4b'	n RF
2cc#	?- ぶF
=70	=70
4b	?u うF
4a#X'	?u RF
2a#	- てG4
=71	=71
4f#	e ほG4
4e	o らD4
4e'	a RD4
4c#	- みD4
*clefF4	*
=72	=72
8BL	i て
8AJ	e い
4A	i て
4A'	e R
4E	- あ
=73	=73
4F#	a か
4c#	a いD4
8BL	i ま
8AJ	a ふ
4A	u ら
=74	=74
4A'	a R
4E	- ま
4F#	a き
4A	i つ
=75	=75
4B	u け
4A	e た
4A'	a R
4F#	- ひ
=76	=76
4A	i み
4B	i つ
*clefG2	*
4f#	u そG4
[4e	o しD4
=77	=77
4e]	.
4cn	i きD4
4B	i み
*clefF4	*
8.AL	i た
16AJk	a い
=78	=78
4A	i R
4e	- あD4
4e	a かD4
*clefG2	*
4e	a ねD4
=79	=79
4f#	e いG4
4a	i ろG4
4a'	o RF
4a	?- そF
=80	=80
4b	?o めF
4cc#	?e てF
4cc#'	?e RF
4e	- はD4
=81	=81
4f#	a じG4
4a	i めG4
4cc#	e よF
4b	?o おF
=82	=82
4b'	?o RF
4a	- ちG4
4f#	i いG4
4e	i さD4
=83	=83
4f#	a なG4
4f#'	a RG4
4ee	?- ひF
4cc#	?i いF
=84	=84
4b	i ろG4
4a	o おG4
4a'	o RG4
4a	- のG4
=85	=85
4b	o ふG4
4cc#	?u りF
4cc#'	?i RF
4e	- だD4
=86	=86
4f#	a けG4
4a	e どG4
4a'	o RG4
4e	- すD4
=87	=87
4e	u こD4
4e	o しD4
4f#	i でG4
4a	e もG4
=88	=88
4b	o まG4
4cc#	a たG4
4cc#	a RG4
4e	- わD4
=89	=89
4e	a らD4
4f#	a えG4
4cc#	e たG4
4b	a らG4
=90	=90
4b	a RG4
4a	- てG4
4f#	e きょG4
4e	o おD4
=91	=91
4f#	o もG4
4f#'	o RG4
4ee	?- かF
4cc#	?a ぞF
=92	=92
4b	o くG4
4a	u でG4
4b	e いG4
[4a	i よG4
=93	=93
2.a]	.
4a	o RG4
=94	=94
4r	.
4e	- しD4
4e	i あD4
4e	a わD4
=95	=95
4f#	a せG4
4a	e おG4
4a'	o RD4
4a	- ねG4
=96	=96
4b	?e がF
4cc#	?a おF
4cc#'	?o RF
4e	- さD4
=97	=97
4f#	a きG4
4a	i にG4
4cc#	?i あF
4b	?a るF
=98	=98
4b'	u RF
4a	- みG4
4f#	i らG4
4e	a いD4
=99	=99
4f#	i がG4
4f#	a RG4
4ee	?- どF
4cc#	?o れF
=100	=100
4b	?e だF
4a	a けG4
4a'	e RG4
4a	- かG4
=101	=101
2b	a なG4
[4.cc#	a しG4
16cc#LL]	.
16cc#JJ	i くG4
=102	=102
4b	- てG4
4a	e もG4
4a'	o RG4
4a	- こG4
=103	=103
2dd	?o のF
4cc#	?o こF
[4a	o とG4
=104	=104
4a]	.
4e	o わD4
4e	a RD4
4f#	- ひG4
=105	=105
4e	i みD4
4a	i つG4
4b	u だG4
4a	a よG4
=106	=106
4a'	o RG4
4e	- たD4
4a	a のG4
4cc#	o しG4
=107	=107
4b	i くG4
4a	u てG4
4a'	e RG4
8eL	- ひD4
8eJ	i がD4
=108	=108
4f#	a しG4
4a	i ずG4
4g#	u んG4
[4a	n だG4
=109	=109
1a_	.
=110	=110
4a]	.
4a	a RG4
2r	.
=111	=111
1r	.
=112	=112
1r	.
=113	=113
1r	.
=114	=114
1r	.
=115	=115
1r	.
=116	=116
1r	.
=117	=117
4r	.
*clefF4	*
8F#L	- は
8F#J	a る
4A	u か
8BL	a ぜ
[8c#J	e めD4
=118	=118
8c#L]	.
*clefG2	*
8eJ	e ぐD4
4e	u りD4
4e'	i RD4
8AL	- お
8AJ	o と
=119	=119
4d	o なD4
4e	a にD4
4f#'	i なG4
[4e	- たD4
=120	=120
4e]	.
4c#	a せD4
*clefF4	*
8BL	e か
8AJ	a い
4A	i わ
=121	=121
4A'	a R
8F#L	- り
8F#J	i ふ
8AL	u じ
8A	i ん
8B	n に
*clefG2	*
[8c#J	i まD4
=122	=122
8c#L]	.
8eJ	a がD4
4e	a るD4
4e'	u RD4
*clefF4	*
8EL	- だ
8EJ	a れ
=123	=123
4F#	e か
4A	a の
8BL	o い
8BJ	i ん
*clefG2	*
4c#	n ぼD4
=124	=124
4c#'	o RD4
4c#	- みD4
8.BL	i た
16BJk	a い
*clefF4	*
4A	i に
=125	=125
4A	i R
8F#L	- ふ
8F#J	u く
8AL	u ら
8A	a ん
8B	n で
*clefG2	*
[8c#J	e きD4
=126	=126
8c#L]	.
8eJ	i えD4
4e	e たD4
4e'	a RD4
8AL	- あ
8AJ	a い
=127	=127
4f#	i すG4
4e	u るD4
8dL	u ひD4
8dJ	i とD4
4e	o のD4
=128	=128
4e'	o RD4
4c#	- なD4
*clefF4	*
8BL	a み
8AJ	i だ
4A	a わ
=129	=129
4A	a R
8F#L	- だ
8F#J	a れ
4A	e も
8BL	o き
*clefG2	*
[8c#J	i ずD4
=130	=130
4c#]	.
4e	u けD4
8c#L	e なD4
8BJ	a く
4A	u て
=131	=131
4d	e くD4
4c#	u ろD4
*clefF4	*
4A	o く
8BL	u な
[8AJ	a る
=132	=132
8AL]	.
8AJ	u R
4A	- く
4B	u る
*clefG2	*
4c#	u いD4
=133	=133
2e	i だD4
4e'	a しD4
8AL	- て
8AJ	e い
*clefF4	*
=134	=134
2B	i た
4B'	a R
4A	- き
=135	=135
2e	i ずD4
4e'	u いD4
4A	- た
=136	=136
4B	a ら
4c#	a もD4
4B	o お
4A	o だ
*clefG2	*
=137	=137
2c#	a れD4
2e	e にD4
=138	=138
2f#	i もG4
2a	o いG4
=139	=139
4b	i えG4
8bL	?e RF
8bJ	?RF
2cc#	?- なF
=140	=140
*^	*
2b'	4r	?a くF
.	4a#X	u RG4
2r	2a#	.
*v	*v	*
=141	=141
4f#	e やG4
4e	a だD4
4e'	a RD4
4c#	- やD4
*clefF4	*
=142	=142
4B	a だ
4A	a よ
4A'	o R
4E	- こ
=143	=143
4F#	o わ
4c#	a れD4
8BL	e る
8AJ	u の
4A	o わ
=144	=144
4A'	a R
4E	- し
4F#	i あ
4A	a わ
=145	=145
4B	a せ
4A	e の
4A'	o R
4F#	- お
=146	=146
4A	o わ
4B	a る
*clefG2	*
4f#	u せG4
[4e	e かD4
=147	=147
8eL]	.
8eJ	a いD4
4cn	i がD4
*clefF4	*
4B	a く
4A	u る
=148	=148
4A'	u R
4e	- あD4
4e	a かD4
*clefG2	*
4e	a ねD4
=149	=149
4f#	e いG4
4a	i ろG4
4a'	o RG4
4a	- おG4
=150	=150
4b	o ねG4
4cc#	?e がF
16cc#KL	?a いF
8.cc#'J	?i RF
4e	- こD4
=151	=151
2f#	o れG4
4cc#	?e いF
4b	?i じょF
=152	=152
4b'	o RF
4a	- だG4
4f#	a れG4
4e	e かD4
=153	=153
4f#	a のG4
4f#'	o RG4
4ee	?- みF
4cc#	?i らF
=154	=154
4b	?a いF
4a	i おG4
4a'	o RG4
4a	- こG4
=155	=155
4b	o わG4
[4cc#	?a さF
8cc#L]	.
8cc#J	?a RF
4e	- なD4
=156	=156
4f#	a いG4
4a	i でG4
4a'	e RG4
4e	- なD4
=157	=157
4e	a きD4
4e	i なD4
4f#	a がG4
4a	a らG4
=158	=158
4b	a まG4
4cc#	?a たF
4cc#'	?a RF
4e	- かD4
=159	=159
4e	a んD4
4f#	n がG4
4cc#	a えG4
[4b	?e るF
=160	=160
12b]	.
6b	u RF
4a	- えG4
4f#	e がG4
4e	a おD4
=161	=161
4f#	o にG4
4f#'	i RG4
4e	- かD4
4cc#	?a くF
=162	=162
4b	?u しF
4a	i たG4
4f#	a まG4
[4a	a まG4
=163	=163
2.a]	.
4a	a RG4
=164	=164
4r	.
4e	- あD4
4e	a かD4
4e	a めD4
=165	=165
4f#	e いG4
4a	i ろG4
4a'	o RG4
4a	- そG4
=166	=166
4b	?o れF
4cc#	?e がF
4cc#'	?a RF
4e	- わD4
=167	=167
4f#	a たG4
4a	a しG4
4cc#	?i なF
4b	?a らF
=168	=168
4b'	?a RF
4a	- だG4
4f#	a れG4
4e	e かD4
=169	=169
4f#	a のG4
4f#'	o RG4
4ee	?- みF
4cc#	?i らF
=170	=170
4b	a いG4
4a	i おG4
4a'	o RG4
4a	- すG4
=171	=171
2b	u くG4
4.cc#	u えG4
8cc#	e るG4
=172	=172
4b	u かG4
4a	a なG4
4a'	a RG4
4a	- ぶG4
=173	=173
4dd	?u きF
4cc#	?i よF
4cc#'	?o RF
[4a	- うぉG4
=174	=174
4a]	.
4e	o でD4
4e'	e RD4
4f#	- なG4
=175	=175
4e	a さD4
4a	a けG4
4b	e なG4
4a	a いG4
=176	=176
4a'	i RG4
4e	- ひD4
4a	i とG4
4cc#	?o りF
=177	=177
4dd	?i ぼF
4cc#	?o おF
4a	- ちG4
4e	i のD4
=178	=178
8f#L	o さG4
8f#J	a くG4
[4a	u せG4
12a]	.
6g#	e んG4
[4a	n だG4
=179	=179
1a]	.
=180	=180
4a	a RG4
4r	.
2r	.
=181	=181
1r	.
=182	=182
1r	.
=183	=183
1r	.
=184	=184
1r	.
=185	=185
1r	.
=186	=186
1r	.
=187	=187
1r	.
=188	=188
1r	.
=189	=189
1r	.
=190	=190
1r	.
=191	=191
1r	.
=192	=192
1r	.
=193	=193
4r	.
*clefF4	*
8F#L	- わ
8F#J	a た
4A	a し
8BL	i が
[8c#J	a きD4
=194	=194
8c#L]	.
*clefG2	*
8eJ	i えD4
4e	e たD4
4e'	a RD4
8AL	- あ
8AJ	a の
=195	=195
4f#	o ひG4
4e	i のD4
8dL	o ひD4
8dJ	i みD4
[4e	i つD4
=196	=196
4e]	.
4e	u そD4
8c#L	o しD4
*clefF4	*
8BJ	i き
4A	i わ
=197	=197
4A'	a R
8F#L	- ちゃ
8F#J	a ん
4A	n と
8BL	o わ
*clefG2	*
[8c#J	a らD4
=198	=198
8c#L]	.
8eJ	a あD4
4e	a てD4
4e'	e RD4
*clefF4	*
8EL	- く
8EJ	u ら
=199	=199
4F#	a せ
4A	e て
4B	e い
[4c#	i るD4
=200	=200
4c#]	.
4E	u の
12F#	o か
[6A	a な
8AL]	.
[8AJ	a R
=201	=201
8A]	.
8r	.
4F#'	- き
4A	- と
8BL	o わ
*clefG2	*
[8c#J	a たD4
=202	=202
8c#L]	.
8eJ	a しD4
4e	i わD4
4e'	a RD4
8AL	- お
8AJ	o こ
=203	=203
4f#	o らG4
4e	a れD4
8dL	e ちゃD4
8dJ	a うD4
[4e	u なD4
=204	=204
4e]	.
4c#	a だD4
*clefF4	*
8B	a け
4.A	e ど
=205	=205
4A'	o R
8F#L	- ちゃ
8F#J	a ん
4A	n と
8BL	o お
*clefG2	*
[8c#J	o ねD4
=206	=206
4c#]	.
4e	e えD4
8c#L	e ちゃD4
8BJ	a ん
4A	n に
=207	=207
4d	i なD4
4c#	a れD4
*clefF4	*
4A	e た
8F#L	a か
[8AJ	a な
=208	=208
8AL]	.
8AJ	a R
4r	.
2E	- お
=209	=209
2A	o も
*clefG2	*
2e	o いD4
=210	=210
[2e	i だD4
8.eL]	.
16eJk	a しD4
8dL	i てD4
8c#J	e みD4
=211	=211
[2d	i よD4
8dL]	.
8dJ	o RD4
4A	- あ
=212	=212
4d	a のD4
4d	o RD4
4r	.
8dL	- すD4
8eJ	u きD4
=213	=213
4d	i だD4
4c#	a あD4
4A	a た
*clefF4	*
4E	a こ
=214	=214
4F#	o と
2.A	o ば
=215	=215
4A'	a R
4A	- し
4A	i あ
4B	a わ
*clefG2	*
=216	=216
4c#	a せD4
4c#'	e RD4
4c#	- てD4
4a	e なG4
=217	=217
4g#	a んG4
4f#	n だG4
4e	a かD4
4c#	a ふD4
=218	=218
4e	u しD4
4f#	i ぎG4
4f#'	i RG4
*clefF4	*
4A	- あ
=219	=219
4A	a し
4A	i た
4F#	a の
4A	o こ
*clefG2	*
=220	=220
2e	o とD4
4e'	o RG4
4A	- す
=221	=221
4d	u きD4
4c#	i にD4
*clefF4	*
4A	i な
4B	a れ
=222	=222
[1A	e る
=223	=223
2A]	.
4A	u RA3
4r	.
==	==
*-	*-
